packages/kaspersky-hexa-ui-icons/src/iconsSVGs/28x20/FlagHt.svg

<svg xmlns="http://www.w3.org/2000/svg" width="28" height="20" fill="none" viewBox="0 0 28 20"><g clip-path="url(#a)"><rect width="28" height="20" fill="#fff" rx="2"/><mask id="b" width="28" height="20" x="0" y="0" maskUnits="userSpaceOnUse" style="mask-type:luminance"><rect width="28" height="20" fill="#fff" rx="2"/></mask><g fill-rule="evenodd" clip-rule="evenodd" mask="url(#b)"><path fill="#112ebc" d="M0 9.3333h28V0H0z"/><path fill="#e3264a" d="M0 20h28V9.3333H0z"/></g><g clip-path="url(#c)"><rect width="9" height="8" x="9" y="7" fill="url(#d)" rx="1"/><mask id="e" width="10" height="9" x="9" y="6" maskUnits="userSpaceOnUse" style="mask-type:luminance"><rect width="9" height="8" x="9" y="7" fill="#fff" rx="1"/></mask><g mask="url(#e)"><mask id="f" fill="#fff"><path fill-rule="evenodd" d="m9.3333 13.3333 2.1037-1.0518A2.67 2.67 0 0 1 12.6295 12h2.741c.414 0 .8223.0964 1.1926.2815l2.1036 1.0518v1.3334H9.3333z" clip-rule="evenodd"/></mask><path fill="#aabcae" fill-rule="evenodd" stroke="#366c14" d="m9.3333 13.3333 2.1037-1.0518A2.67 2.67 0 0 1 12.6295 12h2.741c.414 0 .8223.0964 1.1926.2815l2.1036 1.0518v1.3334H9.3333z" clip-rule="evenodd" mask="url(#f)"/><circle cx="14" cy="10" r="2" fill="#d4b872"/><mask id="g" fill="#fff"><path fill-rule="evenodd" d="M10.6667 11.3871c0-.559.6466-.8698 1.0831-.5206l1.8338 1.467a.6666.6666 0 0 0 .8329 0l1.8337-1.467c.4365-.3492 1.0832-.0384 1.0832.5206v1.2796a.6666.6666 0 0 1-.6667.6666h-5.3333a.6666.6666 0 0 1-.6667-.6666z" clip-rule="evenodd"/></mask><path fill="#c28321" fill-rule="evenodd" stroke="#0d3488" d="M10.6667 11.3871c0-.559.6466-.8698 1.0831-.5206l1.8338 1.467a.6666.6666 0 0 0 .8329 0l1.8337-1.467c.4365-.3492 1.0832-.0384 1.0832.5206v1.2796a.6666.6666 0 0 1-.6667.6666h-5.3333a.6666.6666 0 0 1-.6667-.6666z" clip-rule="evenodd" mask="url(#g)"/><path fill="#216c30" fill-rule="evenodd" d="M12.569 8.569c-.21-.21-.0612-.569.2357-.569h2.3906c.2969 0 .4457.359.2357.569l-1.1953 1.1953a.3333.3333 0 0 1-.4714 0z" clip-rule="evenodd"/></g></g></g><defs><clipPath id="a"><path fill="#fff" d="M0 0h28v20H0z"/></clipPath><clipPath id="c"><path fill="#fff" d="M9.3333 6.6667h10v8h-10z"/></clipPath><linearGradient id="d" x1="9" x2="9" y1="7" y2="15" gradientUnits="userSpaceOnUse"><stop stop-color="#fff"/><stop offset="1" stop-color="#f0f0f0"/></linearGradient></defs></svg>

<svg width="28" height="20" viewBox="0 0 28 20" fill="none" xmlns="http://www.w3.org/2000/svg">
<g clip-path="url(#clip0_5138_951)">
<rect width="28" height="20" rx="2" fill="white"/>
<mask id="mask0_5138_951" style="mask-type:luminance" maskUnits="userSpaceOnUse" x="0" y="0" width="28" height="20">
<rect width="28" height="20" rx="2" fill="white"/>
</mask>
<g mask="url(#mask0_5138_951)">
<path fill-rule="evenodd" clip-rule="evenodd" d="M0 9.33333H28V0H0V9.33333Z" fill="#112EBC"/>
<path fill-rule="evenodd" clip-rule="evenodd" d="M0 20H28V9.33333H0V20Z" fill="#E3264A"/>
</g>
<g clip-path="url(#clip1_5138_951)">
<rect x="9.33334" y="6.66667" width="9.33333" height="8" rx="0.666667" fill="url(#paint0_linear_5138_951)"/>
<mask id="mask1_5138_951" style="mask-type:luminance" maskUnits="userSpaceOnUse" x="9" y="6" width="10" height="9">
<rect x="9.33334" y="6.66667" width="9.33333" height="8" rx="0.666667" fill="white"/>
</mask>
<g mask="url(#mask1_5138_951)">
<mask id="path-7-inside-1_5138_951" fill="white">
<path fill-rule="evenodd" clip-rule="evenodd" d="M9.33334 13.3333L11.437 12.2815C11.8072 12.0964 12.2155 12 12.6295 12H15.3705C15.7845 12 16.1928 12.0964 16.5631 12.2815L18.6667 13.3333V14.6667H9.33334V13.3333Z"/>
</mask>
<path fill-rule="evenodd" clip-rule="evenodd" d="M9.33334 13.3333L11.437 12.2815C11.8072 12.0964 12.2155 12 12.6295 12H15.3705C15.7845 12 16.1928 12.0964 16.5631 12.2815L18.6667 13.3333V14.6667H9.33334V13.3333Z" fill="#AABCAE" stroke="#366C14" stroke-width="1.33333" mask="url(#path-7-inside-1_5138_951)"/>
<circle cx="14" cy="10" r="2" fill="#D4B872"/>
<mask id="path-9-inside-2_5138_951" fill="white">
<path fill-rule="evenodd" clip-rule="evenodd" d="M10.6667 11.3871C10.6667 10.8281 11.3133 10.5173 11.7498 10.8665L13.5836 12.3335C13.827 12.5283 14.173 12.5283 14.4165 12.3335L16.2502 10.8665C16.6867 10.5173 17.3334 10.8281 17.3334 11.3871V12.6667C17.3334 13.0349 17.0349 13.3333 16.6667 13.3333H11.3334C10.9652 13.3333 10.6667 13.0349 10.6667 12.6667V11.3871Z"/>
</mask>
<path fill-rule="evenodd" clip-rule="evenodd" d="M10.6667 11.3871C10.6667 10.8281 11.3133 10.5173 11.7498 10.8665L13.5836 12.3335C13.827 12.5283 14.173 12.5283 14.4165 12.3335L16.2502 10.8665C16.6867 10.5173 17.3334 10.8281 17.3334 11.3871V12.6667C17.3334 13.0349 17.0349 13.3333 16.6667 13.3333H11.3334C10.9652 13.3333 10.6667 13.0349 10.6667 12.6667V11.3871Z" fill="#C28321" stroke="#0D3488" stroke-width="1.33333" mask="url(#path-9-inside-2_5138_951)"/>
<path fill-rule="evenodd" clip-rule="evenodd" d="M12.569 8.56903C12.359 8.35905 12.5078 8 12.8047 8H15.1953C15.4922 8 15.641 8.35905 15.431 8.56904L14.2357 9.7643C14.1055 9.89447 13.8945 9.89447 13.7643 9.7643L12.569 8.56903Z" fill="#216C30"/>
</g>
</g>
</g>
<defs>
<linearGradient id="paint0_linear_5138_951" x1="9.33334" y1="6.66667" x2="9.33334" y2="14.6667" gradientUnits="userSpaceOnUse">
<stop stop-color="white"/>
<stop offset="1" stop-color="#F0F0F0"/>
</linearGradient>
<clipPath id="clip0_5138_951">
<rect width="28" height="20" fill="white"/>
</clipPath>
<clipPath id="clip1_5138_951">
<rect width="10" height="8" fill="white" transform="translate(9.33334 6.66667)"/>
</clipPath>
</defs>
</svg>
